X:1
T:Title
%%score { ( 1 2 3 ) | ( 4 5 6 ) }
L:1/8
M:4/4
K:F
V:1 treble nm="Grand Piano"
V:2 treble 
V:3 treble 
V:4 bass 
V:5 bass 
V:6 bass 
V:1
 z4[Q:1/4=118] z2 E2 |[M:3/4] z2 z2 F2 | [A,FA]2 [G,EG]2 [A,DF]2 | [EG]2 [G,A,^CE]4 | z2 z2 D2 | %5
 z2 z2 E2 | G2 F2 E2 | F2 D4 | z2 z2 E2 | z2 z2 F2 | [A,FA]2 [G,EG]2 [A,DF]2 | [EG]2 [G,A,^CE]4 | %12
 z2 z2 D2 | z2 z2 E2 | G2 F2 E2 | F2 D4 |[M:2/4] A4 | AG AB | z2 [^CEG]2- | [CEG]2 G2- | G z z2 | %21
 GA G2 | F4 | F4 | FE FG | F2 z2 | z4 | z D ED | EF E2 | D4 |] %30
V:2
 z2 D4 z2 |[M:3/4] F4 z2 | x6 | x6 | ^C4 z2 | E4 z2 | x6 | x6 | D4 z2 | F4 z2 | x6 | x6 | ^C4 z2 | %13
 E4 z2 | x6 | x6 |[M:2/4] z2 z G | x4 | A2 G,2 | x4 | z F GF | x4 | x4 | z2 z E | x4 | z2 E2- | %26
 E2 E2- | E z z2 | x4 | x4 |] %30
V:3
 z4 A,4 |[M:3/4] z2 A,4 | x6 | x6 | z2 A,4 | z2 A,4 | x6 | x6 | z2 A,4 | z2 A,4 | x6 | x6 | %12
 z2 A,4 | z2 A,4 | x6 | x6 |[M:2/4] z2 A,2 | x4 | x4 | A,,4 | A,2 z2 | x4 | x4 | z2 A,2 | x4 | x4 | %26
 A,4 | A,4- | A,4 | x4 |] %30
V:4
 z4 F,4 |[M:3/4] D4 D2 | D,2 E,2 F,2 | z2 E,4 | z2 [E,G,]4 | ^C4 C2 | A,2- [F,A,-D]2 [G,A,]2 | %7
 [D,F,A,]6 | z2 F,4 | D4 D2 | D,2 E,2 F,2 | z2 E,4 | z2 [E,G,]4 | ^C4 C2 | A,2- [F,A,-D]2 [G,A,]2 | %15
 [D,F,A,]6 |[M:2/4] D4 | D4 | z4 | z2 E2- | E z z2 | [E,G,A,]2 [G,B,D]2 | [D,F,A,D]4 | D4 | %24
 [F,A,]4 | [^C,G,A,]4 | G,4 | [^C,G,]4- | [C,G,]4 | [D,F,A,]4 |] %30
V:5
 z2 D,6 |[M:3/4] z2 F,4 | x6 | ^C,6 | ^C,6 | z2 [E,G,]4 | [E,^C]2 z2 z2 | x6 | D,6 | z2 F,4 | x6 | %11
 ^C,6 | ^C,6 | z2 [E,G,]4 | [E,^C]2 z2 z2 | x6 |[M:2/4] D,2 F,2 | [D,G,B,]4- | [D,G,B,D]2 ^C,2 | %19
 x4 | [E,G,]2 [E,G,A,]2 | x4 | x4 | D,2 F,2 | x4 | x4 | x4 | x4 | x4 | x4 |] %30
V:6
 x8 |[M:3/4] D,6 | x6 | x6 | x6 | ^C,6 | x6 | x6 | x6 | D,6 | x6 | x6 | x6 | ^C,6 | x6 | x6 | %16
[M:2/4] x4 | x4 | x4 | A,,,4 | x4 | x4 | x4 | x4 | x4 | x4 | x4 | x4 | x4 | x4 |] %30

